X:1
T:St. Hill, 11.11.11.11
T:John Stainer, 1875
T:St. Hill, 11.11.11.11
T:Public Domain
C:John Stainer, 1875
Z:Public Domain
%%score ( 1 2 ) ( 3 4 )
L:1/8
M:4/4
K:G
V:1 treble 
V:2 treble 
V:3 bass 
V:4 bass 
V:1
 [DG]3 [DG] [DA]2 [DB]2 | (E2 [DF]2) [DG]4 | [EA]2 [Dc]2 [DB]2 G2 | [GB]4 [FA]4 | %4
 G3 [DG] [DA]2 [DB]2 | [DE]2 [CF]2 [B,G]4 | [EA]2 [Cc]2 [DB]2 [FA]2 | G8 | %8
 [GB]2 [GB]2 [Ge]2 [Gd]2 | [G^c]4 [Fd]4 | [=FA]2 [Fd]2 [Fc]2 [FB]2 | [Ec]8 | %12
 [Ee]2 [EA]2 [Cc]2 [DB]2 | [EA]4 [EG]4 | [CG]2 [CF]2 [CE]2 [CD]2 | [B,G]8 |] %16
V:2
 x8 | E2 x6 | x6 G2 | x8 | G3 x5 | x8 | x8 | G8 | x8 | x8 | x8 | x8 | x8 | x8 | x8 | x8 |] %16
V:3
 [G,B,]3 [G,B,] [F,C]2 [G,B,]2 | ([C,C]2 [D,A,]2) [G,B,]4 | [G,C]2 [F,A,]2 [G,B,]2 [E,^C]2 | %3
 D4 C4 | [G,B,]3 [G,B,] [F,C]2 [G,B,]2 | [C,B,]2 [D,A,]2 [E,G,]4 | %6
 [C,G,]2 [A,,G,]2 [D,G,]2 [D,C]2 | [G,B,]8 | [G,B,]2 [G,B,]2 [G,B,]2 [G,B,]2 | A,4 [D,A,]4 | %10
 [D,A,]2 [D,A,]2 G,2 G,2 | [C,G,]8 | [C,G,]2 [C,G,]2 [E,G,]2 [D,G,]2 | [C,C]4 [A,,C]4 | %14
 [D,A,]2 [D,A,]2 [D,G,]2 [D,F,]2 | [G,,G,]8 |] %16
V:4
 x8 | x8 | x8 | D,8 | x8 | x8 | x8 | x8 | x8 | A,4 x4 | x4 G,2 G,2 | x8 | x8 | x8 | x8 | x8 |] %16

